site/plugins/site/icons/composer.svg

<svg width="16" height="16" viewBox="0 0 16 16" class="icon icon-composer">
  <path d="M7.91857232,1.06174779 C7.85827326,0.998087766 7.90060652,1.001616 5.40948711,2.51790977 L5.1730288,1.87358546 C5.52281943,1.53178442 6.02157268,1.14760005 5.8566777,0.968137026 C5.75259122,0.838732541 4.11998145,1.79540992 3.99183218,1.51447129 C3.65290092,1.158849 3.32687259,2.09493017 2.91955987,2.51790953 C2.8024916,2.42647052 2.46706338,1.73543739 2.29995164,1.5434854 C2.16694382,1.40060616 2.0394096,1.40553319 2,1.55333924 C2.09466027,3.00031138 2.82847973,4.11680126 2.56104099,4.14158535 C2.48222152,4.18099976 2.47729528,4.21056128 2.52655747,4.33865929 C2.56596721,4.44705057 2.60537694,4.47661162 2.66941767,4.45690393 C2.74331088,4.43719625 2.78764682,4.49139166 2.90040243,4.74704123 C3.04326275,5.06181335 3.04326275,5.06674003 2.96444327,5.35249805 C2.92010745,5.51508474 2.88069771,5.65248966 2.88069771,5.65248966 C2.88069771,5.65248966 2.7575424,5.63278198 2.61030333,5.59336758 C2.16256517,5.47512293 2.19212254,5.44063425 2.12808169,6.16926336 C2.09359822,6.52837706 2.0689671,6.85792971 2.0689671,6.90227079 C2.0689671,6.96139336 2.13300795,6.99588108 2.29502553,7.02051544 L2.52108405,7.05007696 C2.47718319,7.42723226 2.42305478,7.60805368 2.53093659,7.72888851 C2.69850645,8.11367702 2.64112155,9.89444065 2.65901816,10.9713125 C2.99840528,11.0571499 3.19771889,11.1771765 3.20035437,11.3452072 C3.20035437,11.4092569 3.27917385,11.5028677 3.41163423,11.5959301 C3.52493712,11.6747599 3.95789672,11.9895325 4.36622509,12.2944508 C5.0794316,12.8210783 5.11391501,12.855566 5.06465279,12.9634094 C5.02031685,13.0668735 5.03016915,13.1013622 5.15332445,13.2239857 C5.27155348,13.3471575 5.28140602,13.3668652 5.20258667,13.3816462 C5.15825048,13.3914995 5.000612,13.3717918 4.85829896,13.3422308 C4.52879007,13.2683277 3.39685542,13.2141323 3.40178181,13.2732544 C3.40178181,13.2978888 3.63769255,13.4358416 3.92833922,13.5781727 C4.21898601,13.7205028 4.4105608,13.7993336 4.35637255,13.7506132 C4.29725803,13.7013445 3.86429831,13.3323765 3.86429831,13.3323765 C4.70070268,13.4129887 6.2399597,13.8529043 6.49653859,14.0166645 C6.57875735,14.0691395 6.53594827,14.0905666 6.22614422,14.0610056 C5.31588907,13.9772482 4.92233939,13.9723215 4.29725743,14.0314436 C3.92341247,14.0659313 3.58897731,14.1102724 3.5544939,14.129981 C3.465822,14.1743221 4.23814292,14.2285185 5.02086359,14.2285185 C6.04901784,14.2404985 7.07740308,14.4935245 8.10576831,14.725584 C7.89759807,15.132925 7.69198491,15.8854885 7.70236619,16 C9.34177762,15.0630856 9.93507828,14.3135538 13.3543764,13.4139433 C13.5912169,13.3785677 13.7698508,13.2555571 12.8967857,13.41887 C12.645336,13.484005 13.617573,12.8718834 13.5120142,12.852828 C13.2761035,12.852828 11.1452423,13.7040806 10.7418408,13.9646568 C10.5891281,14.0631943 10.5792751,14.0582676 10.5792751,13.8464127 C10.5792751,13.6690454 10.5940541,13.6591921 10.9137102,13.4823713 C11.1939562,13.3296394 12.9159435,12.5572157 12.9750578,12.5572157 C12.9587311,12.6409903 12.8207374,12.8487682 12.7238197,13.0241737 C13.005763,12.7737722 13.2636835,12.5318699 13.4764354,12.3059463 C13.4571518,12.2621012 13.0238861,12.4045906 12.9208676,12.3650694 C12.8826809,11.8148909 13.1660087,11.5075788 13.2607771,10.9132862 C13.4036368,10.057107 13.5804332,9.36351394 13.7774821,8.89108181 C14.1956626,7.9018774 14.2350728,7.75461817 14.1710315,7.47871398 C14.0758083,7.12353801 14.197913,7.0905323 14.1217693,6.81960868 C14.0110757,6.51617527 14.3224274,6.71612262 13.9739836,6.30283546 C13.8606801,6.16981029 13.7818617,6.04718637 13.7818617,6.04718637 L14.1464014,5.879673 L14.2399998,4.5362811 C14.2350728,4.5362811 13.245999,4.83189344 13.2115158,4.83189344 C13.1425485,4.83189344 13.0785073,4.70379447 12.8672277,4.11366558 C12.729294,3.7397716 12.7046629,3.62152648 12.729294,3.37573098 C12.8079036,2.60212278 12.3082824,0.853215688 11.4747514,0.0643305724 C11.2600304,-0.0304374088 11.0808615,0.0315919568 11.0902292,0.253044747 C11.0983306,0.444553726 11.2967535,0.766773722 11.4654457,1.200794 C10.4998302,0.411305844 9.86688432,0.0917180943 9.44350931,0.0243683256 C9.03729484,-0.0803676088 9.25851854,0.177760938 8.99577019,0.319980185 C8.93172988,0.339687685 8.90709925,0.393883151 8.90709925,0.531287919 C8.86962957,0.829811344 9.682531,1.36392308 9.87646843,1.68253196 C9.55348395,1.53600884 9.14790693,1.13652421 8.86276306,1.16630615 C8.44950807,1.16630615 8.45936061,1.45151676 8.88246767,1.75205577 C9.19286054,1.97652937 9.55330135,2.35077024 9.91587811,2.73140693 C9.36298549,2.83279753 8.8315253,2.90043283 8.75986041,3.06588627 C8.54184636,3.40234018 9.30767968,3.41051388 9.95528827,3.78411365 C10.7365553,4.38226033 11.014916,4.27330685 11.1802737,4.51274157 C11.3109471,4.74730111 11.420422,4.5914898 11.5448143,5.00488091 C11.5891496,5.15761376 11.5990026,5.3097992 11.5990026,5.3097992 L10.7281574,5.5955577 L11.0872236,6.23495532 C11.4167318,6.83055831 11.4512159,6.87489988 11.5792975,6.86011983 C11.8182968,6.81808425 11.6646696,6.96490337 11.4955512,7.25919582 L11.6088546,7.46612407 C11.7500179,7.70924236 11.6885675,8.0301962 11.5398873,7.65279819 C11.4154512,7.41560365 11.081879,6.83268167 10.5830311,6.55265618 C10.3502995,6.42201377 10.3502995,6.37762643 9.4194265,6.37345506 C8.65008935,5.67512227 8.58974309,5.63928748 7.77626,5.6448269 L7.16103058,5.6448269 C6.23995957,6.07651426 5.59981918,6.56058646 4.82436336,7.85370446 C4.74900777,7.42218638 4.69552205,7.40078927 4.88840438,7.38127376 C5.03126453,7.36649228 5.04111682,7.35171224 5.14401972,6.92362214 C5.31357754,6.16239787 5.44368731,6.33937074 4.8736251,6.16050578 C4.53918994,6.07674886 4.4308132,6.03240682 4.4308132,5.96835757 C4.54549671,5.22008611 4.6874033,5.31796599 4.73569123,5.10232402 C5.01525731,4.68174792 5.19141751,5.07326652 5.69958704,3.97516705 C6.04479492,3.2267325 6.49757688,2.84415914 6.74230174,2.52831126 C6.74230174,2.44455458 6.54032684,2.22339297 6.46698133,2.22339297 C6.05260114,2.24297238 8.2228334,1.12648249 7.91857232,1.06174779 Z"></path>
</svg>

<svg width="16" height="16" class="icon icon-composer"><path d="M7.919 1.062c-.06-.064-.018-.06-2.51 1.456l-.236-.644c.35-.342.849-.726.684-.906-.104-.13-1.737.827-1.865.546-.34-.355-.665.58-1.072 1.004-.118-.092-.453-.783-.62-.975-.133-.142-.26-.137-.3.01.095 1.447.828 2.564.561 2.589-.079.039-.084.069-.034.197.039.108.078.138.142.118.074-.02.119.034.231.29.143.315.143.32.064.605-.044.163-.083.3-.083.3s-.123-.02-.27-.059c-.448-.118-.419-.152-.483.576-.034.36-.059.689-.059.733 0 .06.064.094.226.119l.226.03c-.044.376-.098.557.01.678.168.385.11 2.165.128 3.242.34.086.539.206.541.374 0 .064.08.158.212.25.113.08.546.395.954.7.713.526.748.56.699.668-.045.104-.035.138.088.261.119.123.128.143.05.158-.045.01-.202-.01-.345-.04-.33-.074-1.461-.128-1.456-.069 0 .025.236.163.526.305.291.143.483.221.428.173l-.492-.419c.837.081 2.376.52 2.633.685.082.052.039.074-.27.044-.911-.084-1.305-.089-1.93-.03-.374.035-.708.08-.743.099-.088.044.684.099 1.467.099 1.028.011 2.056.265 3.085.497-.208.407-.414 1.16-.404 1.274 1.64-.937 2.233-1.686 5.652-2.586.237-.035.416-.158-.457.005-.252.065.72-.547.615-.566-.236 0-2.367.851-2.77 1.112-.153.098-.163.093-.163-.119 0-.177.015-.187.335-.364.28-.152 2.002-.925 2.061-.925-.016.084-.154.292-.251.467.282-.25.54-.492.752-.718-.019-.044-.452.099-.555.06-.038-.551.245-.858.34-1.453.143-.856.32-1.55.516-2.022.419-.99.458-1.136.394-1.412-.095-.355.027-.388-.05-.66-.11-.303.201-.103-.147-.516-.113-.133-.192-.256-.192-.256l.364-.167.094-1.344c-.005 0-.994.296-1.028.296-.07 0-.133-.128-.345-.718-.138-.374-.162-.492-.138-.738.079-.774-.42-2.523-1.254-3.312-.215-.094-.394-.032-.385.189.008.192.207.514.375.948C10.5.41 9.867.09 9.444.024c-.407-.104-.185.154-.448.296-.064.02-.089.074-.089.211-.037.299.776.833.97 1.152-.324-.147-.73-.546-1.014-.517-.413 0-.404.286.02.586.31.225.67.599 1.033.98-.553.1-1.084.168-1.156.334-.218.336.548.345 1.195.718.782.598 1.06.49 1.225.729.13.234.24.078.365.492.044.153.054.305.054.305l-.87.286.358.639c.33.596.364.64.492.625.24-.042.086.105-.083.4l.113.206c.141.243.08.564-.07.187-.124-.237-.457-.82-.956-1.1-.233-.131-.233-.175-1.164-.18-.769-.698-.83-.734-1.643-.728h-.615c-.921.432-1.561.916-2.337 2.209-.075-.432-.128-.453.064-.473.143-.015.153-.03.256-.457.17-.762.3-.585-.27-.763-.335-.084-.443-.129-.443-.193.114-.748.256-.65.305-.866.28-.42.455-.029.964-1.127.345-.748.798-1.13 1.042-1.447 0-.083-.202-.305-.275-.305-.414.02 1.756-1.097 1.452-1.161z"/></svg>
